X: 41656
T: Up Ya Boya
R: jig
M: 6/8
K: Adorian
|:cdc AcA|EAc e2f|gdB GBG|EGB dcB|
cdc AcA|EAc e2d|e2f ged|1 cAG A2B:|2 cAG A2e||
|:aec A2A|EAc e2f|gdB GAG|EGB dcA|
aec A2A|EAc e2f|g2d ged|1 cAG A2e:|2 cAG A2B||

